X: 2051
T: Zîrefkend Peşrev
C: Gazi Giray Han
O: Turkey
F: http://compmusic.upf.edu/node/140
N: zirefkend--pesrev--agirdarbifetih----gazi_giray_han
N: makam= zirefkend
N: form= pesrev
N: usul= agirdarbifetih = 88/4
M: 88/4
L: 1/16
K: C    
Q: 1/4=72
%%MIDI tuningsystem comma53
g4 a8 g4  | a6 g2 a4 b4  | c'8 c'6 b2  | \
w:  1. HANE  |   |   | 
d'6 c'2 c'4 b4  | a6 c'2 b4 a4  | c'2 b2 a2 ^g2 a6 z2  | 
w:   |   |   | 
g2 ^9/8f2 g2 a2 b2 a2 g2 f2  | g2 ^9/8f2 g2 a2 g2 f2 e4  | \
w:   |   | 
^9/8f4 g2 f2 g4 a2 g2  | 
w:   | 
b2 a2 g2 ^9/8f2 g8  | z4 a2 a2 a4 b4  | \
w:   |   | 
c'4 b4 a4 b4  | z4 g2 g2 g4 a4  | b4 a4 g4 a4  | 
w:   |   |   | 
z4 ^9/8f2 f2 f4 g4  | a4 g4 ^9/8f4 g4  | \
w:   |   | 
a2 g2 ^9/8f2 g2 f4 e4  | .e4 c2 d2 e8  | \
w:   |   | 
g4 a8 a2 a2  | 
w:   | 
a6 c'2 b4 a4  | b2 a2 g2 ^9/8f2 g4 a4  | \
w:   |   | 
g4 ^9/8f4 e8  | d6 e2 ^9/8f4 g4  | a4 ^9/8f4 g6 z2  | 
w:   |   |   | 
c'12 c'2 c'2  | c'4 b4 b4 a4  | b2 a2 g2 ^9/8f2 g2 f2 e4  | \
w:   |   |   | 
e4 g3^9/8f e6 e2  | d2 e2 ^9/8f2 g2 a4 f4  | 
w:   |   | 
g8 d6 f2  | e4 d4 e2 d2 d2 _7/8e2  | \
w:   |  TESLİM  | 
_7/8e2 d2 c2 B2 c6 z2  | _7/8e4 d2 c2 B2 c2 d2 e2  | 
w:   |   | 
^9/8f2 _7/8e2 d2 c2 d4 B4  | c16  | d2 c2 B12  | \
w:   |   |   | 
G2 _7/8A2 G2 ^9/8F2 G2 F2 G4  | e6 g2 ^9/8f4 e4  | 
w:   |   | 
d6 f2 e4 d4  | c6 _7/8e2 d4 c4  | _1/4B6 d2 c4 B4  | \
w:   |   |   | 
G2 _7/8A2 G2 ^F2 G2 F2 E4  | D4 E8 E2 E2  | 
w:   |   | 
E12 z4  | |



